!!!COM: Palestrina, Giovanni Perluigi da
!!!OPR: In duplicibus minoribus (II)
!!!OTL: Gloria
**kern	**kern	**kern	**kern	**kern
*Ibass	*Itenor	*Itenor	*Icalto	*Icant
!Bassus	!Tenor 2	!Tenor 1	!Altus	!Cantus
*clefF4	*clefGv2	*clefGv2	*clefG2	*clefG2
*k[]	*k[]	*k[]	*k[]	*k[]
*E:phr	*E:phr	*E:phr	*E:phr	*E:phr
*M4/2	*M4/2	*M4/2	*M4/2	*M4/2
=1	=1	=1	=1	=1
1E	1B	1G#	1r	0r
1AA	1c	1A	1e	.
=2	=2	=2	=2	=2
2.D	1A	2F	1f	0r
.	.	1F	.	.
4C	.	.	.	.
4D	2.A	.	1d	.
4E	.	.	.	.
[2F	.	2D	.	.
.	4G	.	.	.
=3	=3	=3	=3	=3
2F]	4A	2F	1c	0r
.	4B	.	.	.
2E	1c	2G	.	.
1D	.	2A	1d	.
.	2B	2B	.	.
=4	=4	=4	=4	=4
2.C	4A	4c	1e	1r
.	4G	4B	.	.
.	2c	2.A	.	.
4D	.	.	.	.
1E	1B	.	1e	1b
.	.	8G#	.	.
.	.	8F#	.	.
.	.	2G#	.	.
=5	=5	=5	=5	=5
1.AA	2r	4A	[0e	1cc
.	.	4G#	.	.
.	4A	4A	.	.
.	4G#	4B	.	.
.	4A	2c	.	1a
.	4B	.	.	.
2AA	2c	2A	.	.
=6	=6	=6	=6	=6
2C	2c	1E	0e]	1g
2E	2B	.	.	.
1AA	2A	2c	.	1a
.	[2A	2c	.	.
=7	=7	=7	=7	=7
[0E	2A]	1.B	[0e	1b
.	4G#	.	.	.
.	4F#	.	.	.
.	2G#	.	.	1b
.	2A	2A	.	.
=8	=8	=8	=8	=8
1E_	[0B	[0G#	1e_	[0b
1E_	.	.	1e_	.
=9	=9	=9	=9	=9
0E]	0B]	0G#]	0e]	0b]
!! Benedicimus
*Ibass	*Itenor	*Itenor	*Icalto	*Icant
!Bassus	!Tenor 2	!Tenor 1	!Altus	!Cantus
*clefF4	*clefGv2	*clefGv2	*clefG2	*clefG2
*k[]	*k[]	*k[]	*k[]	*k[]
*E:phr	*E:phr	*E:phr	*E:phr	*E:phr
*M4/2	*M4/2	*M4/2	*M4/2	*M4/2
=10	=10	=10	=10	=10
0E	0r	2G#	1r	1b
.	.	2A	.	.
.	.	2B	1e	1g#
.	.	[2E	.	.
=11	=11	=11	=11	=11
1AA	0r	2E]	1c#	1.a
.	.	2A	.	.
2D	.	2F#	[1d	.
2GG	.	2G	.	2b
=12	=12	=12	=12	=12
2GG	1r	4G	2d]	1b
.	.	4F	.	.
2.G	.	4E	2e	.
.	.	4D	.	.
.	1B	1E	1e	1b
4F	.	.	.	.
4E	.	.	.	.
4D	.	.	.	.
=13	=13	=13	=13	=13
1E	1G#	2r	[0e	2r
.	.	2B	.	2b
2.AA	[1A	1c	.	2a
.	.	.	.	[2cc
4AA	.	.	.	.
=14	=14	=14	=14	=14
2AA	2A]	2A	0e]	2cc]
2E	2B	2G#	.	2b
1AA	1c	1A	.	1a
=15	=15	=15	=15	=15
[0E	[0B	[0G#	[0e	[0b
=16	=16	=16	=16	=16
0E]	0B]	0G#]	0e]	0b]
!! Glorificamus
*Ibass	*Itenor	*Itenor	*Icalto	*Icant
!Bassus	!Tenor 2	!Tenor 1	!Altus	!Cantus
*clefF4	*clefGv2	*clefGv2	*clefG2	*clefG2
*k[]	*k[]	*k[]	*k[]	*k[]
*E:phr	*E:phr	*E:phr	*E:phr	*E:phr
*M4/2	*M4/2	*M4/2	*M4/2	*M4/2
=17	=17	=17	=17	=17
1C	1c	1G	1e	1g
1GG	1B	[1G	1d	1g
=18	=18	=18	=18	=18
2.C	0c	1G]	1e	1g
4BB	.	.	.	.
1AA	.	1F	1f	1cc
=19	=19	=19	=19	=19
4GG	1.d	2.D	1g	1b
4AA	.	.	.	.
4BB	.	.	.	.
4C	.	4E	.	.
2D	.	4F	2f	1a
.	.	4G	.	.
2AA	4c	4A	2e	.
.	4B	4G	.	.
=20	=20	=20	=20	=20
2D	2A	2F	2d	2r
2E	2G	2E	2c	2g
1D	1A	1r	1d	2g
.	.	.	.	2f
=21	=21	=21	=21	=21
1C	1c	2r	1e	2.g
.	.	2c	.	.
.	.	.	.	4f
1r	1r	2c	1g	2e
.	.	2B	.	2d
=22	=22	=22	=22	=22
1r	2r	1A	1f	1c
.	2c	.	.	.
2r	2c	1G	1g	[1d
2G	2B	.	.	.
=23	=23	=23	=23	=23
2G	1A	1d	1a	1d]
2F	.	.	.	.
4E	2B	[1e	[1g	2r
4D	.	.	.	.
4C	4c	.	.	2cc
4D	8B	.	.	.
.	8A	.	.	.
=24	=24	=24	=24	=24
4E	4G	2e]	1g]	2cc
4F	4A	.	.	.
2G	4B	1d	.	2b
.	4c	.	.	.
1D	1d	.	1f	[1a
.	.	[2A	.	.
=25	=25	=25	=25	=25
0AA	2c	2A]	[0e	1a]
.	2B	2B	.	.
.	1A	1c	.	1a
=26	=26	=26	=26	=26
[0E	[0G#	[0B	1e_	[0b
.	.	.	1e_	.
=27	=27	=27	=27	=27
0E]	0G#]	0B]	0e]	0b]
!! Domine Deus Rex
*Ibass	*Itenor	*Itenor	*Icalto	*Icant
!Bassus	!Tenor 2	!Tenor 1	!Altus	!Cantus
*clefF4	*clefGv2	*clefGv2	*clefG2	*clefG2
*k[]	*k[]	*k[]	*k[]	*k[]
*E:phr	*E:phr	*E:phr	*E:phr	*E:phr
*M4/2	*M4/2	*M4/2	*M4/2	*M4/2
=28	=28	=28	=28	=28
0r	1r	0r	2r	1b
.	.	.	2.e	.
.	2r	.	.	1cc
.	.	.	4c	.
.	[2A	.	2c	.
=29	=29	=29	=29	=29
0r	4A]	0r	1f	1a
.	4F	.	.	.
.	2F	.	.	.
.	2.c	.	2.e	1g
.	4B	.	4d	.
=30	=30	=30	=30	=30
0r	2c	0r	2e	1a
.	2d	.	2f#	.
.	[1G	.	2g	1b
.	.	.	4f	.
.	.	.	4e	.
=31	=31	=31	=31	=31
0r	1G]	0r	2d	1b
.	.	.	1g	.
.	1d	.	.	1r
.	.	.	2f	.
=32	=32	=32	=32	=32
0r	2c	0r	2e	1r
.	1d	.	1f	.
.	.	.	.	1dd
.	4c	.	4e	.
.	4B	.	4d	.
=33	=33	=33	=33	=33
0r	2A	0r	2e	2cc
.	1B	.	2d	1dd
.	.	.	2G	.
.	4A	.	[2g	4cc
.	4G	.	.	4b
=34	=34	=34	=34	=34
1r	1A	1r	2g]	1cc
.	.	.	2f#	.
2r	1G	2.d	1g	1b
[2G	.	.	.	.
.	.	4c	.	.
=35	=35	=35	=35	=35
2G]	1d	2B	0r	0r
2F	.	2A	.	.
2E	2c	2G	.	.
2D	2B	2F	.	.
=36	=36	=36	=36	=36
2C	2A	2E	2r	0r
2BB	2G	2D	1d	.
1AA	1A	1E	.	.
.	.	.	2c#	.
=37	=37	=37	=37	=37
1D	1A	1F	4d	1r
.	.	.	4e	.
.	.	.	4f	.
.	.	.	4d	.
1C	1c	1G	1e	2r
.	.	.	.	[2cc
=38	=38	=38	=38	=38
1GG	1d	2r	2g	2cc]
.	.	2G	1G	2b
1r	1e	2E	.	1cc
.	.	2C	[2c	.
=39	=39	=39	=39	=39
2r	1d	1G	2c]	2dd
2G	.	.	2B	1g
2E	1c	1C	2.e	.
2C	.	.	.	[2cc
.	.	.	4f#	.
=40	=40	=40	=40	=40
1G	1d	1r	0g	2cc]
.	.	.	.	4b
.	.	.	.	4a
1GG	1d	1G	.	[1b
=41	=41	=41	=41	=41
1r	1e	2E	2r	2b]
.	.	2C	2.g	2cc
2r	[1d	1D	.	1a
.	.	.	8f#	.
.	.	.	8e	.
2D	.	.	2f#	.
=42	=42	=42	=42	=42
2BB	1d]	2r	1.g	2r
2GG	.	2G	.	2b
2.C	1c	[1E	.	4cc
.	.	.	.	4b
.	.	.	2e	[2a
4D	.	.	.	.
=43	=43	=43	=43	=43
1E	1B	2E]	[0e	2a]
.	.	2E	.	2g
1AA	1A	4E	.	1cc
.	.	8F#	.	.
.	.	8G#	.	.
.	.	[2A	.	.
=44	=44	=44	=44	=44
[0E	[0B	2A]	0e]	[0b
.	.	4G#	.	.
.	.	4F#	.	.
.	.	1G#	.	.
=45	=45	=45	=45	=45
1E_	1B_	[0G#	[0e	1b_
1E_	1B_	.	.	1b_
=46	=46	=46	=46	=46
0E]	0B]	0G#]	0e]	0b]
*	*	*	*	*-
!! Domine Deus Agnus
*Ibass	*Itenor	*Icalto	*Icant
!Bassus	!Tenor	!Altus	!Cantus
*clefF4	*clefGv2	*clefG2	*clefG2
*k[]	*k[]	*k[]	*k[]
*E:phr	*E:phr	*E:phr	*E:phr
*M4/2	*M4/2	*M4/2	*M4/2
=47	=47	=47	=47
0r	1B	0r	2r
.	.	.	2b
.	1c	.	2a
.	.	.	2g
=48	=48	=48	=48
1r	1A	1r	1cc
1E	1G	2r	1b
.	.	2e	.
=49	=49	=49	=49
1F	1.A	2d	2r
.	.	2c	1a
1D	.	1f	.
.	2B	.	4g
.	.	.	4f
=50	=50	=50	=50
1C	2.c	1e	4a
.	.	.	4g
.	.	.	1g
.	4B	.	.
1D	1A	2.d	.
.	.	.	2f#
.	.	4c	.
=51	=51	=51	=51
1E	1G	1B	2g
.	.	.	4e
.	.	.	4f#
1E	2r	1e	4g
.	.	.	4a
.	4G	.	[2b
.	4A	.	.
=52	=52	=52	=52
1G	4B	1d	2b]
.	4c	.	.
.	1d	.	4g
.	.	.	4a
1G	.	2.g	4b
.	.	.	4cc
.	2B	.	2dd
.	.	4f	.
=53	=53	=53	=53
1A	2c	4e	4cc
.	.	4d	4a
.	4A	4c	2.cc
.	4B	4B	.
1A	4c	4A	.
.	4d	4B	4b
.	[2e	2c	[2a
=54	=54	=54	=54
1B	4e]	1d	2a]
.	4d	.	.
.	2d	.	2g#
1A	2c	1e	1a
.	2e	.	.
=55	=55	=55	=55
0r	2d	2r	1a
.	2c	2e	.
.	2B	2d	2g
.	2A	2c	2f
=56	=56	=56	=56
0r	2B	2d	1.g
.	1c	1e	.
.	4B	4d	2g
.	4A	4c	.
=57	=57	=57	=57
0r	2B	2d	1g
.	2c	2e	.
.	4F	2f	1a
.	4G	.	.
.	4A	[2f	.
.	4B	.	.
=58	=58	=58	=58
0r	1c	2f]	1g
.	.	1e	.
.	1d	.	1f
.	.	[2d	.
=59	=59	=59	=59
1r	1A	2d]	1e
.	.	4c#	.
.	.	4B	.
1A	2r	2c#	1e
.	2c#	[2e	.
=60	=60	=60	=60
2G	2B	2e]	2r
2F	2A	2d	2a
[1G	[1B	4d	2g
.	.	4c	.
.	.	4B	4g
.	.	4A	4a
=61	=61	=61	=61
2G]	2B]	2G	4b
.	.	.	4cc
2G	2B	2.g	4dd
.	.	.	4cc
1G	1B	.	4b
.	.	4f	4a
.	.	[2e	4g
.	.	.	4f
=62	=62	=62	=62
1A	1c	2e]	2e
.	.	4d	2f
.	.	4c	.
1G	1B	2d	1g
.	.	[2e	.
=63	=63	=63	=63
1F	2.A	4e]	1.a
.	.	8d	.
.	.	8c	.
.	.	2d	.
.	4B	.	.
1E	2c	1e	.
.	2B	.	2g#
=64	=64	=64	=64
[0E	[0B	[0e	[0g#
=65	=65	=65	=65
0E]	0B]	0e]	0g#]
*-	*-	*-	*-
!! Qui tollis
**kern	**kern	**kern	**kern	**kern
*Ibass	*Itenor	*Itenor	*Icalto	*Icant
!Bassus	!Tenor 2	!Tenor 1	!Altus	!Cantus
*clefF4	*clefGv2	*clefGv2	*clefG2	*clefG2
*k[]	*k[]	*k[]	*k[]	*k[]
*E:phr	*E:phr	*E:phr	*E:phr	*E:phr
*M4/2	*M4/2	*M4/2	*M4/2	*M4/2
=66	=66	=66	=66	=66
1E	1B	1G#	1e	1b
1AA	1c	1A	1e	1a
=67	=67	=67	=67	=67
1E	1B	2.G#	2e	1b
.	.	.	2e	.
.	.	4A	.	.
2E	2.G	1B	2g	1b
2E	.	.	2e	.
.	4A	.	.	.
=68	=68	=68	=68	=68
2G	1B	2r	4d	1b
.	.	.	8e	.
.	.	.	8f	.
2E	.	1e	2.g	.
1C	1E	.	.	1cc
.	.	.	4f	.
.	.	[2c	[2e	.
=69	=69	=69	=69	=69
1F	1r	2c]	2e]	1a
.	.	4B	2d	.
.	.	4A	.	.
1E	2r	2c	[1e	1g
.	2B	2B	.	.
=70	=70	=70	=70	=70
0r	2c	1A	2e]	1a
.	2c	.	2f#	.
.	4d	[1G	[1g	1b
.	4B	.	.	.
.	2e	.	.	.
=71	=71	=71	=71	=71
1r	1d	1G]	1g]	1b
1C	[1c	1G	1e	2r
.	.	.	.	[2cc
=72	=72	=72	=72	=72
1.F	2c]	1A	1.f	2cc]
.	2c	.	.	2cc
.	2.A	[1c	.	2.cc
2F	.	.	2f	.
.	4G	.	.	4b
=73	=73	=73	=73	=73
2F	1F	2c]	1f	2a
4E	.	2c	.	4g
4D	.	.	.	4f
2.C	1G	[1c	1r	1e
4BB	.	.	.	.
=74	=74	=74	=74	=74
1AA	1F#	1c]	1r	1a
1GG	1G	1B	2r	2d
.	.	.	[2g	[2dd
=75	=75	=75	=75	=75
0r	1A	1c	2g]	4dd]
.	.	.	.	4cc
.	.	.	2f#	1cc
.	1G	1d	1g	.
.	.	.	.	2b
=76	=76	=76	=76	=76
0r	1A	1c	2e	4cc
.	.	.	.	4b
.	.	.	2.f	4a
.	.	.	.	4g
.	1B-	1d	.	2f
.	.	.	4e	.
.	.	.	[2d	2g
=77	=77	=77	=77	=77
2.AA	1A	1e	2d]	1.a
.	.	.	2c	.
4AA	.	.	.	.
2D	2.F	1d	1f	.
2D	.	.	.	2b
.	4G	.	.	.
=78	=78	=78	=78	=78
1AA	2A	1c	[0e	4cc
.	.	.	.	4b
.	2E	.	.	2.a
1E	2r	1B	.	.
.	.	.	.	4g#
.	[2E	.	.	4g#
.	.	.	.	8a
.	.	.	.	8b
=79	=79	=79	=79	=79
1AA	2E]	1A	0e]	1cc
.	1A	.	.	.
1E	.	1B	.	1b
.	2G#	.	.	.
=80	=80	=80	=80	=80
[0E	[0G#	[0B	[0e	[0b
=81	=81	=81	=81	=81
0E]	0G#]	0B]	0e]	0b]
!! Quoniam
*Ibass	*Itenor	*Itenor	*Icalto	*Icant
!Bassus	!Tenor 2	!Tenor 1	!Altus	!Cantus
*clefF4	*clefGv2	*clefGv2	*clefG2	*clefG2
*k[]	*k[]	*k[]	*k[]	*k[]
*E:phr	*E:phr	*E:phr	*E:phr	*E:phr
*M4/2	*M4/2	*M4/2	*M4/2	*M4/2
=82	=82	=82	=82	=82
0r	1r	0r	1r	1b
.	1A	.	1e	[1cc
=83	=83	=83	=83	=83
0r	1.d	0r	1.f	2cc]
.	.	.	.	2b
.	.	.	.	2a
.	2c	.	2e	[2a
=84	=84	=84	=84	=84
1r	1.B	0r	1d	2a]
.	.	.	.	4g#
.	.	.	.	4f#
1E	.	.	1e	1g#
.	[2c	.	.	.
=85	=85	=85	=85	=85
1.F	2c]	1A	1c	1a
.	1A	.	.	.
.	.	1c	1r	2f
2E	2G	.	.	[2g
=86	=86	=86	=86	=86
1D	1d	2B	1r	4g]
.	.	.	.	4f
.	.	1A	.	2f
1E	2.B	.	2r	1e
.	.	2G#	2e	.
.	4c	.	.	.
=87	=87	=87	=87	=87
1D	1d	2A	1f	2r
.	.	2F	.	2a
1C	2r	2G	2e	1cc
.	2G	2E	[2g	.
=88	=88	=88	=88	=88
0D	1d	2r	2g]	2b
.	.	2A	4f	4a
.	.	.	4e	4g
.	[1A	1d	[1f	2a
.	.	.	.	[2dd
=89	=89	=89	=89	=89
1D	2A]	2d	1f]	4dd]
.	.	.	.	4cc
.	1B	4d	.	4b
.	.	4c	.	4a
1E	.	4B	1e	4g
.	.	4A	.	4f
.	2B	4G	.	4e
.	.	4F	.	4f
=90	=90	=90	=90	=90
0E	2.B	4E	[0e	4g
.	.	4F	.	4a
.	.	4G	.	1b
.	4A	4A	.	.
.	2G#	2B	.	.
.	2A	[2A	.	2cc
=91	=91	=91	=91	=91
[0E	[0B	2A]	0e]	[0b
.	.	4G#	.	.
.	.	4F#	.	.
.	.	1G#	.	.
=92	=92	=92	=92	=92
1E_	1B_	[0G#	[0e	1b_
1E_	1B_	.	.	1b_
=93	=93	=93	=93	=93
0E]	0B]	0G#]	0e]	0b]
!! Tu solus
*Ibass	*Itenor	*Itenor	*Icalto	*Icant
!Bassus	!Tenor 2	!Tenor 1	!Altus	!Cantus
*clefF4	*clefGv2	*clefGv2	*clefG2	*clefG2
*k[]	*k[]	*k[]	*k[]	*k[]
*E:phr	*E:phr	*E:phr	*E:phr	*E:phr
*M4/2	*M4/2	*M4/2	*M4/2	*M4/2
=94	=94	=94	=94	=94
0r	1r	0r	1r	1b
.	1A	.	1e	1cc
=95	=95	=95	=95	=95
0r	2.d	0r	1f	1a
.	4c	.	.	.
.	4B	.	1d	1g
.	4A	.	.	.
.	2B	.	.	.
=96	=96	=96	=96	=96
0r	1A	0r	1c	1a
.	2G	.	1d	1b
.	[2G	.	.	.
=97	=97	=97	=97	=97
1r	2G]	1r	1.e	2b
.	2A	.	.	2.a
2r	1E	1B	.	.
.	.	.	.	4g#
2E	.	.	2e	2g#
=98	=98	=98	=98	=98
1A	2r	1c	1e	2a
.	2e	.	.	1a
2D	1d	1A	1f#	.
2D	.	.	.	[2dd
=99	=99	=99	=99	=99
2G	2B	1G	4g	2dd]
.	.	.	4d	.
2E	2G	.	1g	2cc
1D	2.d	1A	.	1dd
.	.	.	2f#	.
.	4d	.	.	.
=100	=100	=100	=100	=100
0G	1d	2.B	0g	1r
.	.	4B	.	.
.	1d	1B	.	1dd
=101	=101	=101	=101	=101
0r	2.e	0r	2.g	2cc
.	.	.	.	2b
.	4d	.	4f	.
.	2c	.	2e	2a
.	2B	.	2d	2g
=102	=102	=102	=102	=102
1D	1A	1d	1f	1a
2.E	2.G	2c	1e	1r
.	.	2B	.	.
4D	4F	.	.	.
=103	=103	=103	=103	=103
2C	2E	2A	1r	2r
2BB	2D	2G	.	1dd
[1AA	1E	1A	[1e	.
.	.	.	.	[2cc
=104	=104	=104	=104	=104
1AA]	2r	1A	2e]	4cc]
.	.	.	.	4b
.	1e	.	2c	4a
.	.	.	.	4g
1A	.	1c	2e	1a
.	4d	.	2f#	.
.	4c	.	.	.
=105	=105	=105	=105	=105
1G	4B	1d	[0g	1b
.	4c	.	.	.
.	2.d	.	.	.
1C	.	1e	.	1cc
.	4c	.	.	.
.	[2c	.	.	.
=106	=106	=106	=106	=106
1G	2c]	1d	1g]	2dd
.	2B	.	.	1g
1C	1G	1c	1e	.
.	.	.	.	[2cc
=107	=107	=107	=107	=107
0GG	1G	0d	1g	2cc]
.	.	.	.	4b
.	.	.	.	4a
.	2r	.	1g	2b
.	2B	.	.	2b
=108	=108	=108	=108	=108
1AA	2c	1c	0e	1a
.	1A	.	.	.
1E	.	1B	.	1b
.	4G#	.	.	.
.	4F#	.	.	.
=109	=109	=109	=109	=109
[0E	1G#	[0B	[0e	[0b
.	[1G#	.	.	.
=110	=110	=110	=110	=110
0E]	0G#]	0B]	0e]	0b]
!! Amen
*Ibass	*Itenor	*Itenor	*Icalto	*Icant
!Bassus	!Tenor 2	!Tenor 1	!Altus	!Cantus
*clefF4	*clefGv2	*clefGv2	*clefG2	*clefG2
*k[]	*k[]	*k[]	*k[]	*k[]
*E:phr	*E:phr	*E:phr	*E:phr	*E:phr
*M4/2	*M4/2	*M4/2	*M4/2	*M4/2
=111	=111	=111	=111	=111
0r	1A	0r	1r	0r
.	2.c	.	1A	.
.	4B	.	.	.
=112	=112	=112	=112	=112
0r	1A	0r	1.c	1e
.	2.G	.	.	[1g
.	.	.	2B	.
.	4F	.	.	.
=113	=113	=113	=113	=113
0r	2E	0r	2c	2g]
.	2D	.	2d	2f
.	2C	.	2e	2g
.	4F	.	[2f	[2a
.	4G	.	.	.
=114	=114	=114	=114	=114
0r	4A	0r	2f]	2a]
.	4B	.	.	.
.	2c	.	2e	2g
.	1F	.	2d	2f
.	.	.	[2c	2e
=115	=115	=115	=115	=115
1r	1G	0r	2c]	1d
.	.	.	2B	.
1AA	2C	.	1c	1e
.	[2c	.	.	.
=116	=116	=116	=116	=116
1.C	4c]	1E	2r	0r
.	4B	.	.	.
.	2.G	.	2.g	.
.	.	[1G	.	.
.	4A	.	4f	.
2BB	2B	.	2d	.
=117	=117	=117	=117	=117
2C	1A	2G]	2e	0r
2D	.	2F	4d	.
.	.	.	4c	.
2E	2G	2G	2B	.
[2F	4F	[2A	2A	.
.	4G	.	.	.
=118	=118	=118	=118	=118
2F]	4A	2A]	1c	0r
.	4B	.	.	.
2E	2c	2G	.	.
2D	4B	2F	2r	.
.	4A	.	.	.
2C	[2A	2E	2c	.
=119	=119	=119	=119	=119
1BB	2A]	1D	1d	1b
.	2G#	.	.	.
2.AA	1A	1E	2.c	[1cc
4BB	.	.	4d	.
=120	=120	=120	=120	=120
4C	1G	[0E	0e	2cc]
4D	.	.	.	.
2E	.	.	.	2b
1AA	1c	.	.	1a
=121	=121	=121	=121	=121
[0E	[0B	1E_	[0e	[0g#
.	.	1E_	.	.
=122	=122	=122	=122	=122
0E]	0B]	0E]	0e]	0g#]
==	==	==	==	==
*-	*-	*-	*-	*-
!!!CDT: 1525/^1526/-1594/2/2
!!!OCY: Italia
!!!AGN: Mass (Paraphrase)
!!!AST: renaissance, vocal
!!!ASW: Gregorian Mass
!!!PWK: Masses, Book Mantuan I
!!!RNB: Cadence finals: A
!!!YOR: Le Opere Complete, v. 18, p. 1
!!!YOO: Rome, Italy: Fratelli Scalera
!!!END: 1992//
!!!EED: John Miller
!!!YEC: Copyright 2000, John Miller
!!!YEN: United States of America
!!!YEM: Rights to all derivative electronic formats reserved.
!!!YEM: Refer to licensing agreement for further details.
!!!YEM: This file must be accompanied by the licensing agreement.
!!!YEM: A copy of the licensing agreement may be found at http://www.music-cog.ohio-state.edu/HumdrumDatabases/Palestrina/license.txt
!!!EMD: converted to Humdrum by Bret Aarden
